!!!!SEGMENT: pl-sa--576-a-ix-56--006_anonim--valc.krn
!!!cenid: 18xx:635
!!!COM: Anonim
!!!COM-rismID: pe30004985
!!!CDT:
!!!CNT:
!!!OTL: Valc
!!!PDT:
!!!AGN: Secular; Waltz
!!!SMS-siglum: PL-SA
!!!SMS-shelfmark: 576/A IX 56
!!!SMS-shelfwork: 006 W
!!!SMS-variant:
!!!SMS-altvar:
!!!NIFC-rismSourceID: 1001109921
!!!NIFC-rismChildID: 1001109921
!!!NIFC-islandoraID: none
!!!URL-pdf-islandora:
!!!URL-scan: https://bc.bdsandomierz.pl/dlibra/publication/1384/edition/1352/content @EN{Scan in the Sandomierz Diocese Digital Library} @PL{Skany w portalu Cyfrowa Biblioteka Diecezjalna w Sandomierzu}
!!!IIIF:
!!!ONB-nifc: Str. 7, s. 1-3
!!!AIN: 1 empty
!!!key:
**kern	**kern	**dynam
*part1	*part1	*part1
*staff2	*staff1	*
*Iempty	*Ipiano	*
*	*I"Piano	*
*clefF4	*clefG2	*
*k[f#c#]	*k[f#c#]	*
*D:	*D:	*
*M3/8	*M3/8	*
*>[A,A,B,B,C,C,D,D,A,A,B,B,C,C,D,D]	*>[A,A,B,B,C,C,D,D,A,A,B,B,C,C,D,D]	*
*>A	*>A	*
!LO:TX:a:t=P:problem=klucz zapisany jako F3	!LO:TX:a:t=P:problem=klucz zapisany jako G1	!
!	!LO:TX:a:Bi:t=2 Valc:rj	!
8r	8aa\	.
=1	=1	=1
8D\	8.aaa\L	f
*tremolo	*	*
!LO:TX:a:t=P:problem=w źródle tremola wyglądają podobnie do zwykłych ósemek	!	!
8f# 8d 8A\L	.	.
.	(>16ddd\L	.
8f# 8d 8A\J	16fff#\	.
.	16aa\JJ)	.
*Xtremolo	*	*
=2	=2	=2
*rep	*	*
8D\	(>16ddd\LL	.
.	16ff#\	.
*tremolo	*	*
8f# 8d 8A\L	(>16aa\)	.
.	16dd\)	.
8f# 8d 8A\J	(>16ff#\	.
.	16a\JJ)	.
*Xtremolo	*	*
*Xrep	*	*
=3	=3	=3
8AA/	(<16g#X/LL	.
.	16a/	.
*tremolo	*	*
8c# 8A 8G 8E\L	16b/	.
.	16a/	.
8c# 8A 8G 8E\J	16gn/	.
.	16e/JJ)	.
*Xtremolo	*	*
=4	=4	=4
8D\	16f#/LL	.
.	16a/JJ	.
*tremolo	*	*
8f# 8d 8A\L	16dd\LL	.
.	16ff#\	.
!	!LO:TUP:a:problem=klamra łukowa	!
8f# 8d 8A\J	24aa\	.
.	24bb\	.
.	24fff#\JJ	.
*Xtremolo	*	*
=5	=5	=5
*rep	*	*
8D\	8.aaa\L	.
*tremolo	*	*
8f# 8d 8A\L	.	.
.	(>16ddd\L	.
8f# 8d 8A\J	16fff#\	.
.	16aa\JJ)	.
*Xtremolo	*	*
*Xrep	*	*
=6	=6	=6
*rep	*	*
8D\	(>16ddd\LL	.
.	16ff#\	.
*tremolo	*	*
8f# 8d 8A\L	(>16aa\)	.
.	16dd\)	.
8f# 8d 8A\J	(>16ff#\	.
.	16a\JJ)	.
*Xtremolo	*	*
*Xrep	*	*
=7	=7	=7
8AA/	16g#X/LL	.
.	16a/	.
*tremolo	*	*
8E 8C# 8AA\L	16b/	.
.	16a/	.
8E 8C# 8AA\J	16gn/	.
.	16e/JJ	.
*Xtremolo	*	*
=8	=8	=8
!LO:TX:a:t=P:problem=mixed beam	!	!
8F#L 8D\	4d/	.
8DD/J	.	.
=:|!|:	=:|!|:	=:|!|:
*>B	*>B	*
8r	8dd\	.
=9	=9	=9
!	!LO:TX:b:t=P:problem=diminuendolike accent	!
8BL 8BB\	8bb^<L 8dd#X 8b\	.
8c#X 8C#\	8aa#X 8ee 8b\	.
8d#XJ 8D\	8aanJ 8ff# 8b\	.
=10	=10	=10
4e 4E\	8ggL 8ee 8b\	.
.	16b\L	.
.	16b\J	.
8r	8b\J	.
=11	=11	=11
!	!LO:TX:b:t=P:problem=diminuendolike accent	!
8BL 8BB\	8bb^<L 8dd 8b\	.
8c# 8C#\	8aa#X 8ee 8b\	.
8d#XJ 8D\	8aanJ 8ff# 8b\	.
=12	=12	=12
4e 4E\	8ggL 8ee 8b\	.
.	16b\L	.
.	16b\J	.
8r	8b-X\J	.
=13	=13	=13
!	!	!LO:DY:b:rj
8AL 8AA\	(>8aaL 8cc# 8a\	f
8B 8BB\	8gg#X 8dd 8a\	.
8c#J 8C#\	8ggnJ 8ee 8a'>\)	.
=14	=14	=14
8dL 8D'</	8ff#L 8dd 8a'</	.
8A#X 8AA'</	8ee 8cc# 8f#'</	.
8BJ 8BB'</	8ddJ 8b 8f#'</	.
!!LO:LB:g=original
=15	=15	=15
!	!LO:TX:a:t=P:problem=w źródle nad akordem tajemniczy znak	!
(<16GG/LL	8eeL 8b 8g\	.
16BB/)	.	.
16E/	8gg\J	.
16G/JJ	.	.
!LO:TX:a:t=P:problem=mixed beam	!	!
16A\LL	8cc# 8g 8e/	.
16AA/JJ	.	.
=16	=16	=16
!LO:TX:a:t=P:problem=mixed beam	!	!
8.D\L	4dd 4a 4f#/	.
16DD/Jk	.	.
=:|!|:	=:|!|:	=:|!|:
*>C	*>C	*
8r	8dd#X\	p
=17	=17	=17
!LO:TX:a:t=P:problem=brak znaku początku repetycji	!LO:TX:a:t=P:problem=brak znaku początku repetycji	!
!	!LO:TX:b:Bi:t=e sherzando	!
8GG/	(>16ddd\LL	.
.	16aa#X\	.
*tremolo	*	*
8B 8G 8D\L	(>16bb\)	.
.	16ff#\	.
8B 8G 8D\J	(>16gg\)	.
.	16cc#X\JJ	.
=18	=18	=18
!	!LO:TX:a:t=P:problem=diminuendolike accent	!
!LO:TX:a:t=P:problem=w źródle tremolo jako ćwierćnuta bez kropki	!	!
8B 8G 8D\L	(>4dd^>\)	.
8B 8G 8D\	.	.
8B 8G 8D\J	8b\)	.
*Xtremolo	*	*
!LO:TX:a:t=P:problem=znak końca repetycji	!LO:TX:a:t=P:problem=znak końca repetycji	!
=19	=19	=19
*rep	*rep	*
!LO:TX:a:t=P:problem=powtórzenie taktów oznaczone znakami repetycji	!LO:TX:a:t=P:problem=powtórzenie taktów oznaczone znakami repetycji	!
!	!LO:TX:b:Bi:t=e sherzando	!
8GG/	(>16ddd\LL	.
.	16aa#X\	.
*tremolo	*	*
8B 8G 8D\L	(>16bb\)	.
.	16ff#\	.
8B 8G 8D\J	(>16gg\)	.
.	16cc#X\JJ	.
=20	=20	=20
!	!LO:TX:a:t=P:problem=diminuendolike accent	!
!LO:TX:a:t=P:problem=w źródle tremolo jako ćwierćnuta bez kropki	!	!
8B 8G 8D\L	(>4dd^>\)	.
8B 8G 8D\	.	.
8B 8G 8D\J	8b\)	.
*Xtremolo	*	*
*Xrep	*Xrep	*
=21	=21	=21
8GG/	8.ee\L	.
*tremolo	*	*
8B 8G 8D\L	.	.
.	16dd\L	.
8B 8G 8D\J	16b\	.
.	16g\JJ	.
*Xtremolo	*	*
=22	=22	=22
*rep	*	*
8GG/	8.ee\L	.
*tremolo	*	*
8B 8G 8D\L	.	.
.	16dd\L	.
8B 8G 8D\J	16b\	.
.	16g\JJ	.
*Xtremolo	*	*
*Xrep	*	*
=23	=23	=23
8AA/	8.ee-X\L	.
*tremolo	*	*
8c# 8A 8F# 8D\L	.	.
.	16dd\L	.
!	!LO:TX:a:t=c	!
!	!LO:SIC:s=16cc#:v	!
8c# 8A 8F# 8D\J	16b\	.
!	!LO:TX:a:t=a	!
!	!LO:SIC:s=16a:v	!
.	16g\JJ	.
*Xtremolo	*	*
=24	=24	=24
*rep	*	*
8AA/	8.e-X/L	.
*tremolo	*	*
8c# 8A 8F# 8D\L	.	.
.	16d/L	.
!	!LO:TX:a:t=c	!
!	!LO:SIC:s=16c#:v	!
8c# 8A 8F# 8D\J	16B/	.
!	!LO:TX:a:t=a	!
!	!LO:SIC:s=16A:v	!
.	16G/JJ	.
*Xtremolo	*	*
*Xrep	*	*
=25	=25	=25
*	*8va	*
!LO:TX:a:t=P:problem=znak początku repetycji	!LO:TX:a:t=P:problem=znak początku repetycji	!
8GG/	16dddd\LL	.
.	16aaa#X\	.
*tremolo	*	*
8B 8G 8D\L	16bbb\	.
.	16fff#\	.
8B 8G 8D\J	16ggg\	.
.	16ccc#X\JJ	.
=26	=26	=26
!LO:TX:a:t=P:problem=w źródle tremolo jako ćwierćnuta bez kropki	!	!
8B 8G 8D\L	8ddd\	.
8B 8G 8D\	8r	.
8B 8G 8D\J	8bb\	.
*Xtremolo	*	*
!LO:TX:a:t=P:problem=znak końca repetycji	!LO:TX:a:t=P:problem=znak końca repetycji	!
=27	=27	=27
*rep	*rep	*
!LO:TX:a:t=P:problem=powtórzenie taktów oznaczone znakami repetycji	!LO:TX:a:t=P:problem=powtórzenie taktów oznaczone znakami repetycji	!
8GG/	16dddd\LL	.
.	16aaa#X\	.
*tremolo	*	*
8B 8G 8D\L	16bbb\	.
.	16fff#\	.
8B 8G 8D\J	16ggg\	.
.	16ccc#X\JJ	.
=28	=28	=28
!LO:TX:a:t=P:problem=w źródle tremolo jako ćwierćnuta bez kropki	!	!
8B 8G 8D\L	8ddd\	.
8B 8G 8D\	8r	.
8B 8G 8D\J	8bb\	.
*Xtremolo	*	*
*Xrep	*Xrep	*
*	*X8va	*
=29	=29	=29
!	!LO:TX:a:Bi:t=loco	!
!	!LO:TX:b:t=P:problem=diminuendolike accent	!
8BB/	8.eee^<\L	.
*tremolo	*	*
8d 8B 8G\L	.	.
.	(>16ddd\L	.
8d 8B 8G\J	16bb\	.
.	16gg\JJ)	.
*Xtremolo	*	*
=30	=30	=30
*rep	*	*
*	*8va	*
!	!LO:TX:b:t=P:problem=diminuendolike accent	!
8BB/	8.eeee^<\L	.
*tremolo	*	*
8d 8B 8G\L	.	.
.	(>16dddd\L	.
8d 8B 8G\J	16bbb\	.
.	16ggg\JJ	.
*Xtremolo	*	*
*	*X8va	*
*Xrep	*	*
=31	=31	=31
!	!LO:TX:a:Bi:t=loco	!
!	!LO:TX:b:t=P:problem=diminuendolike accent	!
8D\	8.ddd^<\L)	.
*tremolo	*	*
8c# 8A 8F# 8D\L	.	.
.	16ccc#\L	.
8c# 8A 8F# 8D\J	16aa\	.
.	16ff#\JJ	.
*Xtremolo	*	*
=32	=32	=32
!LO:TX:a:t=P:problem=mixed beam	!	!
8BL 8G\	8gg\	.
8GG/J	8r	.
=:|!|:	=:|!|:	=:|!|:
*>D	*>D	*
8r	8a/	.
=33	=33	=33
!	!	!LO:DY:b:t=%sor
8GG/	16b\LL	f
.	16a\	.
*tremolo	*	*
8g 8e 8c# 8A#X\L	16g#X\	.
.	16a\	.
8g 8e 8c# 8A#X\J	16b\	.
.	16dd\JJ	.
*Xtremolo	*	*
=34	=34	=34
8D\	16dd\LL	.
.	16ee\	.
*tremolo	*	*
8f# 8d 8A\L	16ff#\	.
.	16gg\	.
8f# 8d 8A\J	16gg#X\	.
.	16aa\JJ	.
*Xtremolo	*	*
=35	=35	=35
8AA/	16bb\LL	.
.	16ccc#X\	.
*tremolo	*	*
8g 8e 8c# 8A#X\L	16ddd\	.
.	16ddd#X\	.
8g 8e 8c# 8A#X\J	16eee\	.
.	16eee#X\JJ	.
*Xtremolo	*	*
!!LO:LB:g=original
=36	=36	=36
8D\	4fff#\	.
8f# 8d 8A\	.	.
8r	8ddd\	.
=37	=37	=37
!	!	!LO:DY:b:rj
16BB/LL	4aa 4cc#X 4a\	f
16AA/	.	.
16GG#X/	.	.
16AA/	.	.
16BB/	8aa 8ee 8a\	.
16C#X/JJ	.	.
=38	=38	=38
16D\LL	4aa 4dd 4f#/	.
16E\	.	.
16F#\	.	.
16G\	.	.
16G#X\	8aa 8dd 8f#/	.
16A\JJ	.	.
=39	=39	=39
16G#X\LL	4aa 4cc#X 4a\	.
16A\	.	.
16B\	.	.
16A\	.	.
16G#X\	8aa 8cc# 8g\	.
16E\JJ	.	.
=40	=40	=40
4D\	4aa 4dd\	.
8cn 8F# 8D\	8ddd\	.
=41	=41	=41
!LO:TX:a:t=P:problem=znak początku repetycji	!LO:TX:a:t=P:problem=znak początku repetycji	!
8GG/	16ddd\LL	.
.	16aa#X\	.
*tremolo	*	*
8B 8G 8D\L	16bb\	.
.	16ff#\	.
8B 8G 8D\J	16gg\	.
.	16cc#X\JJ	.
=42	=42	=42
!LO:TX:a:t=P:problem=w źródle tremolo jako ćwierćnuta bez kropki	!	!
8B 8G 8D\L	4dd\	.
8B 8G 8D\	.	.
8B 8G 8D\J	8b\	.
*Xtremolo	*	*
!LO:TX:a:t=P:problem=znak końca repetycji	!LO:TX:a:t=P:problem=znak końca repetycji	!
=43	=43	=43
*rep	*rep	*
!LO:TX:a:t=P:problem=powtórzenie taktów oznaczone znakami repetycji	!LO:TX:a:t=P:problem=powtórzenie taktów oznaczone znakami repetycji	!
8GG/	16ddd\LL	.
.	16aa#X\	.
*tremolo	*	*
8B 8G 8D\L	16bb\	.
.	16ff#\	.
8B 8G 8D\J	16gg\	.
.	16cc#X\JJ	.
=44	=44	=44
!LO:TX:a:t=P:problem=w źródle tremolo jako ćwierćnuta bez kropki	!	!
8B 8G 8D\L	4dd\	.
8B 8G 8D\	.	.
8B 8G 8D\J	8b\	.
*Xrep	*Xrep	*
=45	=45	=45
*rep	*	*
!LO:TX:a:t=P:problem=w źródle tremolo jako ćwierćnuta bez kropki	!	!
8B 8G 8D\L	8.eee\L	.
8B 8G 8D\	.	.
.	16ddd\L	.
8B 8G 8D\J	16bb\	.
.	16gg\JJ	.
*Xrep	*	*
=46	=46	=46
*rep	*	*
!LO:TX:a:t=P:problem=w źródle tremolo jako ćwierćnuta bez kropki	!	!
8B 8G 8D\L	8.eee\L	.
8B 8G 8D\	.	.
.	16ddd\L	.
8B 8G 8D\J	16bb\	.
.	16gg\JJ	.
*Xtremolo	*	*
*Xrep	*	*
=47	=47	=47
!	!LO:TX:b:t=P:problem=diminuendolike accent	!
8DD/	8.ddd^<\L	.
*tremolo	*	*
8c# 8A 8F# 8D\L	.	.
.	16ccc#\L	.
8c# 8A 8F# 8D\J	16aa\	.
.	16ff#\JJ	.
*Xtremolo	*	*
=48	=48	=48
!LO:TX:a:t=P:problem=mixed beam	!	!
8BL 8G\	4gg\	.
!	!LO:TX:b:Bi:t=D C	!
8GG/J	.	.
==	==	==
*-	*-	*-
!!!system-decoration: {(s1,s2)}
!!!RDF**kern: > = above
!!!RDF**kern: < = below
!!!EED: Wojciech Jakubiak-Danek
!!!EEV: 2020-12-11
!!!ENC: Kamil Watkowski
!!!END: 2020-06-19
!!!YEC: Copyright 2022 Narodowy Instytut Fryderyka Chopina (https://polishscores.org)
!!!YEM: License CC-BY-4.0 (https://creativecommons.org/licenses/by/4.0)
